X: 22
T: The Dogger Bank
%R: march, reel
B: "Twenty Four Country Dances for the Year 1782", Thomas Skillern, ed. p.11 #2
F: http://www.vwml.org/browse/browse-collections-dance-tune-books/browse-skillerns1782#
Z: 2014 John Chambers <jc:trillian.mit.edu>
M: 2/4
L: 1/8
K: C
|:\
c2ec | d2fd | e2dc | B2AG |\
c2ec | d2fd | ecdB | c2c2 ::\
e2ge | f2a2 | d2fd | e2g2 |\
c2ec | d2fd | ecdB | c2c2 :|
%%begintext align
%%   The 1st Lady Allemand with the 2d
%% Gent: and then with her Partner .|
%% the 1st Gent: do the same .|. lead down up
%% again & cast off :|. Right & Left at top :|:
%%endtext

%%sep 1 1 500
%%sep 1 1 500
